modules/open-iconic/icons/spreadsheet.svg

<svg xmlns="http://www.w3.org/2000/svg" width="8" height="8" viewBox="0 0 8 8">
  <path d="M.75 0c-.41 0-.75.34-.75.75v5.5c0 .41.34.75.75.75h6.5c.41 0 .75-.34.75-.75v-5.5c0-.41-.34-.75-.75-.75h-6.5zm.25 1h1v1h-1v-1zm2 0h4v1h-4v-1zm-2 2h1v1h-1v-1zm2 0h4v1h-4v-1zm-2 2h1v1h-1v-1zm2 0h4v1h-4v-1z" />
</svg>

<svg xmlns="http://www.w3.org/2000/svg" width="8" height="8" viewBox="0 0 8 8"><path d="M.75 0C.34 0 0 .34 0 .75v5.5c0 .41.34.75.75.75h6.5c.41 0 .75-.34.75-.75V.75C8 .34 7.66 0 7.25 0H.75zM1 1h1v1H1V1zm2 0h4v1H3V1zM1 3h1v1H1V3zm2 0h4v1H3V3zM1 5h1v1H1V5zm2 0h4v1H3V5z"/></svg>
